X:1
T:Miles Lane, CM
T:Miles Lane, CM
T:William Shrubsole, 1779
T:Public Domain Courtesy of the Cyber Hymnal™
C:William Shrubsole, 1779
Z:Public Domain
Z:Courtesy of the Cyber Hymnal™
%%score ( 1 2 ) ( 3 4 )
L:1/8
Q:1/4=115
M:4/4
K:Bb
V:1 treble 
V:2 treble 
V:3 bass 
V:4 bass 
V:1
 [DF]2 | [DB]2 [EB]2 [FB]2 [Fc]2 | [Fd]2 ([Fc][=EB]) [Fc]2 F2 | [EG]2 (FE) [B,D]2 [A,C]2 | %4
 B,6 [DF]2 | [DB]2 [EB]2 [FB]2 [Fc]2 | [Fd]2 ([Fc][=EB]) [Fc]2 F2 | [FB]4 [DB]4 | [Fd]4 [Bd]4 | %9
 f4 [Af]2 B2 | [Fd]4 [Ge]4 | [Fd]4 c4 | [DB]6 |] %13
V:2
 x2 | x8 | x6 F2 | x2 B,2 x4 | B,6 x2 | x8 | x6 F2 | x8 | x8 | (B2 AG) B2 x2 | x8 | x4 (F2 E2) | %12
 x6 |] %13
V:3
 [B,,B,]2 | [B,,F,]2 [E,G,]2 [D,B,]2 [F,A,]2 | B,2 ([A,C] [F,A,]2) [D,B,]2 x | %3
 [E,B,]2 ([D,F,][E,G,]) F,2 (F,E,) | [B,,D,]6 [B,,F,]2 | [B,,F,]2 [E,G,]2 [D,F,]2 [F,A,]2 | %6
 B,2 ([A,C] [F,A,]2) [F,A,]2 x | [D,B,]4 [B,,F,]4 | B,4 [G,B,]4 | (D2 CB,) [F,C]2 [B,D]2 | %10
 B,4 [E,B,]4 | [F,B,]4 [F,,A,]4 | [B,,B,]6 |] %13
V:4
 x2 | x8 | B,2 G, x5 | x4 F,2 F,,2 | x8 | x8 | B,2 G, x5 | x8 | B,4 x4 | F,4 x4 | B,4 x4 | x8 | %12
 x6 |] %13

